X:1
T:Millford, 76.76 D
T:Millford, 76.76 D
T:Charles Clinton Case, 1881
T:Public Domain Courtesy of the Cyber Hymnal™
C:Charles Clinton Case, 1881
Z:Public Domain
Z:Courtesy of the Cyber Hymnal™
%%score ( 1 2 ) ( 3 4 )
L:1/8
Q:1/4=91
M:3/4
K:Ab
V:1 treble 
V:2 treble 
V:3 bass 
V:4 bass 
V:1
 [CE]2 | [Ec]3 [DB] [CA][CE] | [DG]2 [DF]2 [DF]2 | [Fd]3 [Ec] [DB]F | (A2 G2) E2 | %5
 [Ec]3 [DB] [CA][CE] | [DG]2 [DF]2 [DF]2 | [CE]3 [CE] [DF][DG] | [CA]4 [CE]2 | %9
 [EB]3 [Ec] [Ed][EG] | (A>B) [_Ec]2 [=Ec]2 | [Fc]3 [Fc] [A=d][Af] | [Ge]4 [Ed]2 | %13
 [Ec]3 [DB] [CA][CE] | [DG]2 [DF]2 [DF]2 | [CE]3 [Ed] [Ec][EB] | [CA]4 |] %17
V:2
 x2 | x6 | x6 | x5 F | E4 E2 | x6 | x6 | x6 | x6 | x6 | =E2 x4 | x6 | x6 | x6 | x6 | x6 | x4 |] %17
V:3
 [A,,A,]2 | [A,,A,]3 [A,,A,] [A,,A,][A,,A,] | [D,A,]2 [D,A,]2 [D,A,]2 | %3
 [B,,B,]3 [C,=A,] [D,B,][=D,=B,] | (C2 B,2) [E,G,]2 | [A,,A,]3 [A,,A,] [A,,A,][A,,A,] | %6
 [D,A,]2 [D,A,]2 [D,A,]2 | [E,A,]3 [E,A,] [E,B,][E,B,] | [A,,A,]4 A,2 | %9
 [E,G,]3 [E,A,] [E,B,][E,D] | (C>D) [A,E]2 (C>B,) | [F,A,]3 [F,A,] [B,,F,][B,,B,] | %12
 [E,B,]4 [E,G,]2 | [A,,A,]3 [A,,A,] [A,,A,][A,,A,] | [D,A,]2 [D,A,]2 [D,A,]2 | %15
 [E,A,]3 [E,B,] [E,A,][E,G,] | [A,,A,]4 |] %17
V:4
 x2 | x6 | x6 | x6 | E,4 x2 | x6 | x6 | x6 | x4 A,2 | x6 | A,2 x/ G,2 x3/2 | x6 | x6 | x6 | x6 | %15
 x6 | x4 |] %17

